X:1
T:Menuet
T:Menuet
T:BWV 842
T:Johann Sebastian Bach
C:Johann Sebastian Bach
%%score 1 2 3
L:1/8
Q:1/4=104
M:3/4
K:G
V:1 treble 
V:2 treble 
V:3 bass 
V:1
 D2 EF/G/ FG/A/ | PG2- GA/B/ AB/c/ | BFGDEG |{D} PC4 B,2 | ED/C/ DC/B,/ CB,/A,/ | %5
 DC/B,/ CB,/A,/ B,A,/G,/ | F,G, MG,3 F,/G,/ | A,G,F,E, D,2 | D2 EF/G/ FG/A/ | PG2 GA/B/ AB/c/ | %10
 BFGDEG | MC4 B,2 | EF/G/ AB/c/ FG/A/ | DE/F/ GA/B/ EF/G/ | CD/E/ A,3 G, | G,6 :: B2- BA/G/ FG/E/ | %17
 ^D2- DE/F/ GA/B/ | cB/A/ ^de/f/ Bc/A/ | MG3 F E2 | ^c2- cd/e/ ^AB/c/ | F2- F^G/^A/ B^c/d/ | %22
 ef/g/ M^c3 B | B6 | D2 DE/=F/ EF/D/ | MC3 B,CE | A3 C B,C/D/ |{B,} A,2 G,F,E,D, | %28
 G,2- G,A,/B,/ CD/E/ | F,G,/A,/ B,C/D/ EF/G/ | AF/G/{B,} A,3 G, | G,6 :| %32
V:2
 B,2 CB,A,C | MB,A,B,DCE | D2 B,4 | A,4 G,2 | x4 x2 | x4 G,,A,,/B,,/ | %6
 A,,B,,/C,/B,,C,/D,/G,,A,,/B,,/ | D,,2 D,3 C, | B,,C,/D,/ C,D,/E,/ A,,B,,/C,/ | B,,C,/D,/ x4 | %10
 x4 x2 | x4 x2 | C,2- C,D,/E,/ A,,B,,/C,/ | B,,2- B,,C,/D,/ C,D,/E,/ | A,,B,,/C,/ D,C,D,D,, | %15
 G,,B,,D,B,, G,,2 :: z2 A,B,CA, | z A,B,C-CC- | CCB,A,G,F, | E,^D,E,B,,G,,B,, | %20
 E,,E,/=D,/ E,F,G,E, | ^A,4 z2 | G,E,F,E,F,F,, | x4 x2 | ^G,,B,,E,B,,G,,E, | x4 x2 | x4 x2 | %27
 D,2 A,,2 C,2 | B,,C,/D,/ x2 A,,B,,/C,/ | x2 =G,,A,,/B,,/ C,2- | C,B,,/A,,/D,C,D,D,, | z D, B,,4 :| %32
V:3
 G,6- | G,6- | G,4 G,2- | G,2 F,2 G,2 | C,G,B,,G,A,,G, | B,,G,A,,G, x2 | x4 x2 | x4 x2 | x4 x2 | %9
 x2 E,F,/G,/ F,G,/A,/ | G,A,B,G,CB, | A,E,F,D,G,B,, | x4 x2 | x4 x2 | x4 x2 | x4 x2 :: G,6 | %17
 F,4 E,2 | ^D,6 | x4 x2 | x4 x2 | z G,F,E,D,B, | x4 x2 | B,,D,F,D,B,,D, | x4 x2 | A,,C,E,=G,^F,E, | %26
 F,G,/A,/ D,E,/F,/ G,A,/B,/ | x4 x2 | x2 E,F,/G,/ x2 | D,E,/F,/ x4 | x4 x2 | G,,3 D,, G,,,2 :| %32

